icons/ionicons/logo/logo-twitch.svg

<svg xmlns="http://www.w3.org/2000/svg" viewBox="0 0 512 512" width="20" height="20"><path d="M80 32l-32 80v304h96v64h64l64-64h80l112-112V32zm336 256l-64 64h-96l-64 64v-64h-80V80h304z"/><path d="M320 143h48v129h-48zM208 143h48v129h-48z"/></svg>

<svg xmlns="http://www.w3.org/2000/svg" width="512" height="512" viewBox="0 0 512 512"><title>ionicons-v5_logos</title><path d="M80,32,48,112V416h96v64h64l64-64h80L464,304V32ZM416,288l-64,64H256l-64,64V352H112V80H416Z"/><rect x="320" y="143" width="48" height="129"/><rect x="208" y="143" width="48" height="129"/></svg>
